dist/svg/phishing-2.svg

<!-- Generated by Trend Micro Style Portal -->
<svg version="1.1" xmlns="http://www.w3.org/2000/svg" width="16" height="16" viewBox="0 0 16 16">
  <title>phishing-2</title>
  <path fill="rgb(34,34,34)" d="M14.62 8.5h1.38v4.89c0 1.44-1.23 2.61-2.75 2.61s-2.75-1.17-2.75-2.61v-2.94l2.41 2.94h-1.030c0 0.080 0 0.15 0.020 0.23 0.050 0.28 0.19 0.53 0.4 0.71 0.25 0.23 0.58 0.37 0.95 0.37s0.71-0.14 0.95-0.37v0c0.13-0.13 0.24-0.28 0.31-0.44s0.11-0.33 0.11-0.51v-4.89zM16 1.020v6.48h-2.38v5.19l-2.35-2.87c-0.19-0.24-0.48-0.37-0.77-0.37-0.11 0-0.23 0.020-0.34 0.060-0.4 0.14-0.66 0.52-0.66 0.94v2.94c0 0.21 0.030 0.41 0.060 0.61h-8.54c-0.56 0-1.020-0.46-1.020-1.020v-11.96c0-0.56 0.46-1.020 1.020-1.020h13.96c0.56 0 1.020 0.46 1.020 1.020zM14 2.25h-12l5.94 4.5 6.060-4.5z"></path>
</svg>

<svg width="16" height="16" viewBox="0 0 16 16" fill="rgb(34, 34, 34)" xmlns="http://www.w3.org/2000/svg"><title>phishing-2</title><g clip-path="url(#clip0_106_3963)"><path d="M14.62 8.5H16V13.39C16 14.83 14.77 16 13.25 16C11.73 16 10.5 14.83 10.5 13.39V10.45L12.91 13.39H11.88C11.88 13.47 11.88 13.54 11.9 13.62C11.95 13.9 12.09 14.15 12.3 14.33C12.55 14.56 12.88 14.7 13.25 14.7C13.62 14.7 13.96 14.56 14.2 14.33C14.33 14.2 14.44 14.05 14.51 13.89C14.58 13.73 14.62 13.56 14.62 13.38V8.49V8.5ZM16 1.02V7.5H13.62V12.69L11.27 9.82C11.08 9.58 10.79 9.45 10.5 9.45C10.39 9.45 10.27 9.47 10.16 9.51C9.76 9.65 9.5 10.03 9.5 10.45V13.39C9.5 13.6 9.53 13.8 9.56 14H1.02C0.46 14 0 13.54 0 12.98V1.02C0 0.46 0.46 0 1.02 0H14.98C15.54 0 16 0.46 16 1.02ZM14 2.25H2L7.94 6.75L14 2.25Z" fill="rgb(34, 34, 34)" fill-opacity="1.00"/></g><defs><clipPath id="clip0_106_3963"><rect width="16" height="16" fill="rgb(34, 34, 34)"/></clipPath></defs></svg>
